packages/design-assets/icons/16px/Home.svg

<?xml version="1.0" encoding="UTF-8"?>
<svg width="16px" height="16px" viewBox="0 0 16 16" version="1.1" xmlns="http://www.w3.org/2000/svg" xmlns:xlink="http://www.w3.org/1999/xlink">
    <!-- Generator: Sketch 54.1 (76490) - https://sketchapp.com -->
    <title>Icons/16px/Home</title>
    <desc>Created with Sketch.</desc>
    <g id="Icons/16px/Home" stroke="none" stroke-width="1" fill="none" fill-rule="evenodd">
        <path d="M6.00008645,6.0005 L10.0000865,6.0005 L10.0000865,8.0005 L6.00008645,8.0005 L6.00008645,6.0005 Z M15.6510865,6.2415 C16.0700865,6.6015 16.1190865,7.2315 15.7600865,7.6505 C15.5620865,7.8825 15.2820865,8.0005 15.0000865,8.0005 C14.7690865,8.0005 14.5380865,7.9215 14.3490865,7.7595 L14.0000865,7.4605 L14.0000865,15.0005 C14.0000865,15.5535 13.5520865,16.0005 13.0000865,16.0005 L3.00008645,16.0005 C2.44808645,16.0005 2.00008645,15.5535 2.00008645,15.0005 L2.00008645,7.4605 L1.65108645,7.7585 C1.23108645,8.1185 0.600086454,8.0705 0.241086454,7.6505 C-0.118913546,7.2315 -0.0699135464,6.6015 0.349086454,6.2415 L2.00008645,4.8265 L2.00008645,2.0005 C2.00008645,1.4475 2.44808645,1.0005 3.00008645,1.0005 C3.55208645,1.0005 4.00008645,1.4475 4.00008645,2.0005 L4.00008645,3.1125 L7.34908645,0.2415 C7.72408645,-0.0805 8.27608645,-0.0805 8.65108645,0.2415 L15.6510865,6.2415 Z M12.0000865,14.0005 L12.0000865,5.7465 L8.00008645,2.3185 L4.00008645,5.7465 L4.00008645,14.0005 L6.00008645,14.0005 L6.00008645,10.0005 L10.0000865,10.0005 L10.0000865,14.0005 L12.0000865,14.0005 Z" id="i-16-home" fill="#818F99"></path>
    </g>
</svg>

<svg width="16" height="16" xmlns="http://www.w3.org/2000/svg"><path d="M6 6h4v2H6V6zm9.651.242A1 1 0 1 1 14.35 7.76L14 7.46V15a1 1 0 0 1-1 1H3a1 1 0 0 1-1-1V7.46l-.349.298A.999.999 0 1 1 .35 6.242L2 4.827V2a1 1 0 1 1 2 0v1.111L7.35.242a.998.998 0 0 1 1.301 0l7 6zM12.001 14V5.745L8 2.318 4 5.747V14h2v-4h4v4h2z" fill="#818F99" fill-rule="evenodd"/></svg>
